img/icons/navigation/map.svg

<svg fill="none" viewBox="0 0 16 16" xmlns="http://www.w3.org/2000/svg"><path d="m16 2.5c0-0.166-0.0823-0.321-0.22-0.414-0.137-0.093-0.312-0.112-0.466-0.0502l-4.81 1.93-4.81-1.93c-0.119-0.0477-0.252-0.0477-0.371 0l-5 2c-0.19 0.0759-0.314 0.26-0.314 0.464v9c0 0.166 0.0823 0.321 0.22 0.414 0.137 0.0931 0.312 0.112 0.466 0.0502l4.81-1.93 4.81 1.93c0.119 0.0477 0.252 0.0477 0.371 0l5-2c0.19-0.0759 0.314-0.26 0.314-0.464v-9zm-10 0.739 4 1.6v7.92l-4-1.6v-7.92zm9 7.92-4 1.6v-7.92l4-1.6v7.92zm-10-7.92v7.92l-4 1.6v-7.92l4-1.6z" clip-rule="evenodd" fill="#000" fill-rule="evenodd"/></svg>

<svg xmlns="http://www.w3.org/2000/svg" viewBox="0 0 16 16" fill="none">
  <path fill="#000" fill-rule="evenodd"
    d="M16 2.5a.5.5 0 0 0-.686-.464L10.5 3.962 5.686 2.036a.5.5 0 0 0-.372 0l-5 2A.5.5 0 0 0 0 4.5v9a.5.5 0 0 0 .686.464L5.5 12.04l4.814 1.925a.5.5 0 0 0 .372 0l5-2A.5.5 0 0 0 16 11.5v-9ZM6 3.24l4 1.6v7.923l-4-1.6V3.239Zm9 7.923-4 1.6V4.839l4-1.6v7.923ZM5 3.239v7.923l-4 1.6V4.839l4-1.6Z"
    clip-rule="evenodd" />
</svg>
